svgs/vivaldi.svg

<svg width="192" height="192" viewBox="0 0 192 192" fill="none" xmlns="http://www.w3.org/2000/svg"><path d="M167.322 57.818c-18.279 31.4-36.558 62.799-54.837 94.263-3.383 5.867-8.326 9.349-15.091 9.865-7.546.515-13.53-2.644-17.369-9.091-11.579-19.665-23.028-39.459-34.476-59.189-6.96-11.992-13.986-23.984-20.946-36.041-7.026-12.121.91-26.886 14.961-27.595 7.416-.387 13.14 3.03 16.913 9.413 5.139 8.704 10.213 17.537 15.352 26.306 3.708 6.318 7.285 12.701 11.058 18.891 5.465 9.091 13.53 14.184 24.264 14.83 15.157.902 29.272-9.994 31.094-25.92.13-1.16.195-2.385.26-2.966-.066-5.158-1.04-9.542-3.122-13.604-5.659-11.218.39-23.791 12.685-26.5 10.017-2.191 20.425 5.094 21.726 15.153.651 4.32-.26 8.381-2.472 12.185Z" stroke="#000" stroke-width="12"/></svg>

<svg id="vector" xmlns="http://www.w3.org/2000/svg" width="192" height="192" viewBox="0 0 192 192"><path fill="#00000000" d="M167.322,57.818C149.043,89.218 130.764,120.617 112.485,152.081C109.102,157.948 104.159,161.43 97.394,161.946C89.848,162.461 83.863,159.302 80.025,152.855C68.446,133.19 56.997,113.396 45.549,93.666C38.588,81.674 31.563,69.682 24.603,57.625C17.577,45.504 25.513,30.739 39.564,30.03C46.98,29.643 52.704,33.06 56.477,39.443C61.616,48.147 66.69,56.98 71.829,65.749C75.537,72.067 79.114,78.45 82.887,84.64C88.352,93.731 96.418,98.825 107.151,99.469C122.308,100.372 136.423,89.476 138.245,73.55C138.375,72.39 138.44,71.165 138.505,70.584C138.439,65.426 137.465,61.042 135.383,56.98C129.724,45.762 135.773,33.189 148.068,30.481C158.085,28.289 168.493,35.574 169.794,45.633C170.445,49.952 169.534,54.014 167.322,57.818Z" stroke-width="12" stroke="#000000" id="path_0"/></svg>
